src/actions/16/dialog-templates.svg

<svg width="16" height="16" version="1.1" xmlns="http://www.w3.org/2000/svg">
 <path d="m2.5 0a0.50005 0.50005 0 0 0-0.5 0.5v1 0.5h1v-0.5-0.5h6v3.5a0.50005 0.50005 0 0 0 0.5 0.5h3.5v10h-0.5-0.5v1h0.5 1a0.50005 0.50005 0 0 0 0.5-0.5v-11a0.50005 0.50005 0 0 0-0.039062-0.19141 0.50005 0.50005 0 0 0-0.10742-0.16211l-4-4a0.50005 0.50005 0 0 0-0.15039-0.099609 0.50005 0.50005 0 0 0-0.037109-0.013672 0.50005 0.50005 0 0 0-0.13086-0.025391 0.50005 0.50005 0 0 0-0.035156-0.0078125h-7zm7.5 1.707 2.293 2.293h-2.293v-2.293zm-8 1.293v1h1v-1h-1zm0 2v1h1v-1h-1zm0 2v1h1v-1h-1zm0 2v1h1v-1h-1zm0 2v1h1v-1h-1zm0 2v1h1v-1h-1zm0 2v0.5a0.50005 0.50005 0 0 0 0.5 0.5h0.5v-0.5-0.5h-0.5-0.5zm2 0v1h1v-1h-1zm2 0v1h1v-1h-1zm2 0v1h1v-1h-1zm2 0v1h1v-1h-1z" color="#000000" fill="#363636" fill-rule="evenodd" stroke-dasharray="1, 1" stroke-dashoffset=".5" stroke-linejoin="round" style="-inkscape-stroke:none"/>
</svg>

<svg xmlns="http://www.w3.org/2000/svg" width="16" height="16">
    <path fill="#050505" fill-opacity=".7" fill-rule="evenodd" d="M2.5 0a.5.5 0 0 0-.5.5V2h1V1h6v3.5a.5.5 0 0 0 .5.5H13v10h-1v1h1.5a.5.5 0 0 0 .5-.5v-11a.5.5 0 0 0-.04-.191.5.5 0 0 0-.106-.163l-4-4a.5.5 0 0 0-.15-.1.5.5 0 0 0-.038-.013.5.5 0 0 0-.13-.025A.5.5 0 0 0 9.5 0h-7zM10 1.707 12.293 4H10V1.707zM2 3v1h1V3H2zm0 2v1h1V5H2zm0 2v1h1V7H2zm0 2v1h1V9H2zm0 2v1h1v-1H2zm0 2v1h1v-1H2zm0 2v.5a.5.5 0 0 0 .5.5H3v-1H2zm2 0v1h1v-1H4zm2 0v1h1v-1H6zm2 0v1h1v-1H8zm2 0v1h1v-1h-1z" color="#000" style="-inkscape-stroke:none"/>
</svg>
